X:1
T:Title
%%score { 1 | 2 }
L:1/8
M:4/4
K:D
V:1 treble nm="Grand Piano"
V:2 bass 
V:1
 z4 z2[Q:1/4=100] DE | F2 [FA]2 [Fd]2 [Gc][GB] | [Gc]2 [CG]2 [CG]2 [CE][DF] | %3
 [EG]2 [FA]2 [Ec]2 [CGB]2 | [DFA]6 [A,DF][A,EG] | [FA]2 [FB]2 [Fc]2 [Fd]2 | %6
[M:9/8] e2 d- d d2- dcB |[M:4/4] A2 AB F2 [CE]2 |[M:3/4] D6 |[M:1/4] F[EG] | %10
[M:4/4] [FA]2 [Fd][Ec] [Fd]2 [Ge][Fd] | [Gc]2 [CG]2 [CG]2 [CE][DF] | %12
 [EG]2 [EGc][EGB] [EGc]2 [CGe][EGc] | [FB]2 [FA]2 [FA]2 [DF][EG] | [FA]2 [FB]2 [Fc]2 [Fd]2 | %15
[M:9/8] e2 d- d d2- dcB |[M:4/4] A2 AB F2 [CE]2 |[M:3/4] D6 |] %18
V:2
 z4 z2 [D,F,][D,G,C] | [D,A,D]2 [D,D]2 [D,A,]2 [D,A,][D,A,] | %2
 [E,A,]2 [E,A,]2 [E,A,]2 [A,,A,][A,,A,] | [A,,A,]2 [A,,A,]2 [A,,A,]2 A,,2 | D,6 D,D, | %5
 [D,D]2 [D,D]2 [D,C]2 [D,A,]2 | %6
[M:9/8][K:treble] [G,B,G]2 [G,B,G]- [G,B,G] [G,B,G]2- [G,B,G][G,CA][G,DG] | %7
[M:4/4][K:bass] [F,D]2 [F,D][G,D] [A,D]2 [A,,G,]2 |[M:3/4] [D,F,]6 |[M:1/4] [D,A,D][D,A,] | %10
[M:4/4] [D,D]2 [D,A,][D,A,] [D,A,]2 [D,A,][D,A,] | [E,A,]2 [E,A,]2 [E,A,]2 [A,,A,][A,,A,] | %12
 [A,,A,]2 A,,A,, A,,2 A,,A,, | [D,D]2 [D,D]2 [D,D]2 [D,A,][D,A,] | [D,D]2 [D,D]2 [D,C]2 [D,A,]2 | %15
[M:9/8][K:treble] [G,B,G]2 [G,B,G]- [G,B,G] [G,B,G]2- [G,B,G][G,CA][G,G] | %16
[M:4/4][K:bass] [F,D]2 [F,D][G,D] [A,D]2 [A,,G,]2 |[M:3/4] [D,F,]6 |] %18

